coreui/free/cil-border-all.svg

<svg viewBox="0 0 512 512" xmlns="http://www.w3.org/2000/svg"><path d="M56 472h400v0c8.83 0 16-7.17 16-16V56v0c0-8.84-7.17-16-16-16H56v0c-8.84 0-16 7.16-16 16v400 0c0 8.83 7.16 16 16 16ZM272 72h168v168H272Zm0 200h168v168H272ZM72 72h168v168H72Zm0 200h168v168H72Z"/></svg>

<svg xmlns="http://www.w3.org/2000/svg" viewBox="0 0 512 512">
  <path fill="var(--ci-primary-color, currentColor)" d="M56,472H456a16,16,0,0,0,16-16V56a16,16,0,0,0-16-16H56A16,16,0,0,0,40,56V456A16,16,0,0,0,56,472ZM272,72H440V240H272Zm0,200H440V440H272ZM72,72H240V240H72Zm0,200H240V440H72Z" class="ci-primary"/>
</svg>
